X: 115
T: Bulgar 9
O: collected by G.Goldenshteyn
M: 4/4
L: 1/8
S: printed MS of unknown origin
Z: 2008 John Chambers <jc:trillian.mit.edu>
Q: 1/4=146
K: Gm
d ^cd \
| ed cB "D"A4- | A4 zc =Bc \
| dc BA "Gm"B4- | B4 zG Bd \
| g^f =f=e _ed^cB 
| "Bbdim"_d4 "Cm"c3 B \
| AB (3d^cB (3dcB (3BAG | "Gm"d4 zG Bd \
| g^f =f=e _ed^cB
| "Bbdim"_d4 "Cm"c3 B \
| AB (3d^cB (3dcB (3BAG |[1 "Gm"G4 z :|[2 "Gm" G4 zd^cd|
|: "Cm"e3 c A3 e | "Gm"d3 B G4 
| "D"AB (3d^cB (3dcB (3BAG | "Gm"d4 zd ^cd \
| "Cm"e3 c A2 ze | "Gm"g4- g4 \
| fz ez dz cz \
|[1 BA d^F "Gm"Gd^cd :|[2 BA d^F "Gm" G2z2 
|: "Bb"(3BAB (3d^cd (3f=ef b2 | (3bag (3fed cB d2 \
|1 "F"=ef (3_agf (3agf (3edc | "Bb"f4 ed f2 
:|2 "D"AB (3d^cB (3dcB (3BAG | "Gm"G4- G4 | z \
|: =efg \
| _ag f=e _dc BA | d4- d4 
| AB (3d^cB (3dcB (3BAG |1 "Gm"d4 z :|2 G4 z |] 



